X:1601
T:Doublings from Low A
C: Kevin Fraser
B: https://bagpipes.ksfraser.com
O: Kevin Fraser
Z:Kevin Fraser
Q:1/4=86
M:2/4
L:1/4
R:March
V:1 gstem=up stem=down
I:MIDI=program 110
K:HP
%%MIDI gracedivider 4
%%MIDI gchord
%%MIDI beatstring 
%%landscape
|| A{gGd}G   | A{gAd}A   | A{gBd}B | A{gcd}c |
w: en himdem | en hindim | en hoto | en hodo |
   A{gde}d   | A{gef}e   | A{gfg}f | g  a | 
w: en hada   | en chehe   | en hete | di I |
 a g   |   A{gfg}f | A{gef}e   | A{gde}d   | 
w:I di | en hete | en chehe   | en hada   | 
  A{gcd}c |A{gBd}B | A{gAd}A  | A{gGd}G   ||
w:en hodo |en hoto |en hindim | en himdem ||
W:You need to be able to play this exercise for SQCF Level 2 
W: We can't play (G) doublings on High G nor High A as we can't play G gracenotes on those notes.
W:
W:
W:
T:F Doubling Scale
C: Kevin Fraser
B: https://bagpipes.ksfraser.com
O: Kevin Fraser
Z:Kevin Fraser
Q:1/4=78
K:HP
M:4/4
L:1/4
%%MIDI gracedivider 4
%%MIDI gchord
%%MIDI beatstring 
|| G {gfg}f A {gfg}f | B {gfg}f c {gfg}f |d {gfg}f e {gfg}f | f {gfg}f  g {afg}f  | 
w: EM hete EN hete   | O hete   O  hete  |A  hete  E  hete  | VE hete   DI hete  |
w: |||- thumb gracenote ^|
  a {fg}f  a {fg}f  | g {afg}f  f {gfg}f | e {gfg}f d {gfg}f | c {gfg}f B {gfg}f | 
w: I hete  I hete   | DI hete   VE hete  | E hete   A hete  | O hete   O  hete  |
w: ^ half doublings ^|||
   A {gfg}f G {gfg}f ||
w: EN hete  EM hete  ||
W: Note the High A gracenote from High G for this doubling!
W: Note the Half Doubling from High A
W:
W: http://svenax.net/site/canntaireachd/5/ has a consolidated Doubling and Throws page
W: without diagrams so the canntaireachd here might be for a different movement...
W: Doublings on F have 3 different Canntaireachd names depending on where the melody note is coming from.




